assets/images/icons/src/tasks.svg

<?xml version="1.0" encoding="utf-8"?>
<!-- Generated by IcoMoon.io -->
<!DOCTYPE svg PUBLIC "-//W3C//DTD SVG 1.1//EN" "http://www.w3.org/Graphics/SVG/1.1/DTD/svg11.dtd">
<svg version="1.1" xmlns="http://www.w3.org/2000/svg" xmlns:xlink="http://www.w3.org/1999/xlink" width="14" height="14" viewBox="0 0 14 14">
<path fill="#444444" d="M8 11h5v-1h-5v1zM5 7h8v-1h-8v1zM10 3h3v-1h-3v1zM14 9.5v2q0 0.203-0.148 0.352t-0.352 0.148h-13q-0.203 0-0.352-0.148t-0.148-0.352v-2q0-0.203 0.148-0.352t0.352-0.148h13q0.203 0 0.352 0.148t0.148 0.352zM14 5.5v2q0 0.203-0.148 0.352t-0.352 0.148h-13q-0.203 0-0.352-0.148t-0.148-0.352v-2q0-0.203 0.148-0.352t0.352-0.148h13q0.203 0 0.352 0.148t0.148 0.352zM14 1.5v2q0 0.203-0.148 0.352t-0.352 0.148h-13q-0.203 0-0.352-0.148t-0.148-0.352v-2q0-0.203 0.148-0.352t0.352-0.148h13q0.203 0 0.352 0.148t0.148 0.352z"></path>
</svg>

<svg xmlns="http://www.w3.org/2000/svg" width="14" height="14" viewBox="0 0 14 14"><path fill="#444" d="M8 11h5v-1H8v1zM5 7h8V6H5v1zm5-4h3V2h-3v1zm4 6.5v2q0 .203-.148.352T13.5 12H.5q-.203 0-.352-.148T0 11.5v-2q0-.203.148-.352T.5 9h13q.203 0 .352.148T14 9.5zm0-4v2q0 .203-.148.352T13.5 8H.5q-.203 0-.352-.148T0 7.5v-2q0-.203.148-.352T.5 5h13q.203 0 .352.148T14 5.5zm0-4v2q0 .203-.148.352T13.5 4H.5q-.203 0-.352-.148T0 3.5v-2q0-.203.148-.352T.5 1h13q.203 0 .352.148T14 1.5z"/></svg>
